X:79
T:Sir John Fenwick's The Flower Amang Them All
Z:Jack Campin, http://www.campin.me.uk/
S:Northumbrian Minstrelsy
M:3/4
L:1/8
K:G
G3  ABc|d2 e2 g2|d2 e2 g2| edcBAG |\
A3  Bcd|e2 e2 g2|e2 e2 g2|Te4  d2 |
G3  ABc|d2 e2 g2|d2 e2 g2| edcBAG |\
c2 dcBA|B2 cB`AG|A2 B2 d2|Te4  d2:|
g2 G2B2|g2 G2 B2|g2 G2 g2| edcBAG |\
a2 A2B2|a2 A2 B2|a2 A2 a2|Te4  d2 |
g2 G2B2|g2 G2 B2|g2 G2 g2| edcBAG |\
c2 dcBA|B2 cB`AG|A2 B2 d2|Te4  d2:|

